!!!OTL: DER HIMMEL STEHT OFFEN
!!!ARE: Europa, Mitteleuropa, Deutschland, Hessen, Odenwald, Lindenfels
!!!SCT: E2037A
!!!YEM: Copyright 1995, estate of Helmut Schaffrath.
**kern
*ICvox
*Ivox
*M3/4
*k[f#]
*G:
{8b
8a
=1
4g
4d
4g
=2
4.a
8g
4a
=3
4.b
8cc
4b
=4
2a}
{8a
8b
=5
4.cc
8ee
8dd
8cc
=6
4.b
8cc
4b
=7
4a
4g
4a
=8
2b}
{8a
8b
=9
4.cc
8ee
8dd
8cc
=10
4.b
8cc
4b
=11
4a
4g
4a
=12
2g}
==
!!!AGN: geistlich, Wallfahrts - Lied
!!!ONB: ESAC (Essen Associative Code) Database: ERK3
!!!AMT: simple triple
!!!AIN: vox
!!!EED: Helmut Schaffrath
!!!EEV: 1.0
*-
